public/static/lp/bettercart.svg

<svg xmlns="http://www.w3.org/2000/svg" width="2482" height="428" fill="none"><path fill="url(#a)" d="M113.457 186.256c15.342-55.532 72.73-88.074 128.28-72.734 55.541 15.34 88.087 72.719 72.745 128.256-22.247 80.514-80.263 146.249-157.358 178.559 93.752 25.893 196.318-15.038 244.816-104.113 56.51-103.788 18.049-233.646-85.75-290.147a211.29 211.29 0 0 0-45.222-18.343c-77.523 31.568-135.812 97.701-157.511 178.522Z"/><path fill="url(#b)" d="M111.743 401.963c14.704 8.016 29.797 14.079 45.23 18.343l.144.039c77.097-32.311 135.113-98.046 157.358-178.56-15.342 55.537-72.734 88.079-128.275 72.739-55.55-15.345-88.096-72.725-72.749-128.261 21.694-80.82 79.989-146.954 157.511-178.521C177.243-18.3 74.533 22.592 25.997 111.817c-56.366 103.826-18.058 233.645 85.746 290.146Z"/><path fill="#979AAD" d="M755.586 249.408c0-124.052-52.891-128.86-85.588-128.86-28.369 0-46.64 17.79-46.64 17.79V34H532v351h102.417c53.853 0 121.169-4.808 121.169-135.592Zm-91.358 0c0 68.758-11.059 73.085-25.484 73.085-7.693 0-15.386-1.442-15.386-1.442V194.114s10.578-6.732 21.637-6.732c12.502 0 19.233 6.732 19.233 62.026ZM994.209 283.066v-30.292c0-101.934-42.794-132.226-101.936-132.226-57.7 0-112.514 25.483-112.514 133.188 0 122.128 69.72 131.264 126.939 131.264 37.985 0 74.529-12.982 74.529-12.982v-66.354s-47.122 10.098-74.529 10.098c-22.599 0-36.062-5.289-36.062-32.696h123.573Zm-85.107-49.525h-38.466c.961-30.292-1.443-58.66 21.637-58.66 18.272 0 16.829 28.849 16.829 58.66ZM1174.68 376.826v-64.911s-25.97 3.847-32.7 3.847c-10.1 0-15.39-3.366-15.39-20.676v-111.55h48.09v-58.18h-48.09V48.425l-91.35 19.233v243.776c0 70.681 48.56 73.566 74.53 73.566 27.88 0 64.91-8.174 64.91-8.174ZM1335.74 376.826v-64.911s-25.97 3.847-32.7 3.847c-10.1 0-15.39-3.366-15.39-20.676v-111.55h48.09v-58.18h-48.09V48.425l-91.35 19.233v243.776c0 70.681 48.56 73.566 74.52 73.566 27.89 0 64.92-8.174 64.92-8.174ZM1555.33 283.066v-30.292c0-101.934-42.79-132.226-101.93-132.226-57.7 0-112.52 25.483-112.52 133.188 0 122.128 69.72 131.264 126.94 131.264 37.99 0 74.53-12.982 74.53-12.982v-66.354s-47.12 10.098-74.53 10.098c-22.6 0-36.06-5.289-36.06-32.696h123.57Zm-85.1-49.525h-38.47c.96-30.292-1.44-58.66 21.64-58.66 18.27 0 16.83 28.849 16.83 58.66ZM1739.59 201.807v-75.97s-7.21-5.289-28.37-5.289c-21.15 0-23.64-2.663-41.07 14.541l-13.26-9.733h-72.61v254.836h91.36V205.653s12.98-8.654 30.29-8.654c16.35 0 33.66 4.808 33.66 4.808ZM1908.19 376.345v-69.719s-23.56 7.693-44.24 7.693c-18.27 0-27.89-14.424-27.89-60.103 0-54.813 15.39-64.43 31.74-64.43 16.35 0 40.39 7.213 40.39 7.213v-67.796s-23.08-8.655-46.64-8.655c-29.81 0-116.84 3.847-116.84 133.668 0 128.38 73.56 130.784 111.55 130.784 26.44 0 51.93-8.655 51.93-8.655ZM2129.43 380.192V198.441c0-62.988-37.03-77.893-88.96-77.893-50.49 0-93.76 14.905-93.76 14.905v65.392s44.24-12.501 69.72-12.501c16.83 0 21.64 4.327 21.64 15.867v10.097h-17.31c-35.1 0-100.5 6.732-100.5 88.471 0 75.489 44.72 82.221 71.17 82.221 33.17 0 48.08-22.599 48.08-22.599l14.43 17.791h75.49Zm-91.36-54.333s-6.25 2.885-12.02 2.885c-12.5 0-17.79-8.655-17.79-31.254 0-30.291 4.8-38.465 22.11-39.427l7.7-.481v68.277ZM2323.26 201.807v-75.97s-7.7-5.289-28.37-5.289c-21.16 0-30.18 0-40.57 16.105l-13.77-11.297h-72.6v254.836h91.36V205.653s12.98-8.654 30.29-8.654c16.35 0 33.66 4.808 33.66 4.808ZM2482 376.826v-64.911s-25.96 3.847-32.7 3.847c-10.09 0-15.38-3.366-15.38-20.676v-111.55H2482v-58.18h-48.08V48.425l-91.36 19.233v243.776c0 70.681 48.56 73.566 74.53 73.566 27.89 0 64.91-8.174 64.91-8.174Z"/><defs><linearGradient id="a" x1="113.457" x2="462.183" y1="75.228" y2="388.798" gradientUnits="userSpaceOnUse"><stop stop-color="#979AAD" stop-opacity=".2"/><stop offset="1" stop-color="#979AAD"/></linearGradient><linearGradient id="b" x1="30.72" x2="265.728" y1="101.121" y2="344.737" gradientUnits="userSpaceOnUse"><stop stop-color="#979AAD"/><stop offset="1" stop-color="#979AAD" stop-opacity=".2"/></linearGradient></defs></svg>

<svg width="2482" height="428" viewBox="0 0 2482 428" fill="none" xmlns="http://www.w3.org/2000/svg">
<path d="M113.457 186.256C128.799 130.724 186.187 98.1821 241.737 113.522C297.278 128.862 329.824 186.241 314.482 241.778C292.235 322.292 234.219 388.027 157.124 420.337C250.876 446.23 353.442 405.299 401.94 316.224C458.45 212.436 419.989 82.5783 316.19 26.0772C301.629 18.1001 286.392 11.9939 270.968 7.73438C193.445 39.3019 135.156 105.435 113.457 186.256Z" fill="url(#paint0_linear_1268_6)"/>
<path d="M111.743 401.963C126.447 409.979 141.54 416.042 156.973 420.306L157.117 420.345C234.214 388.034 292.23 322.299 314.475 241.785C299.133 297.322 241.741 329.864 186.2 314.524C130.65 299.179 98.1035 241.799 113.451 186.263C135.145 105.443 193.44 39.3092 270.962 7.74171C177.243 -18.2999 74.5333 22.5925 25.997 111.817C-30.3689 215.643 7.93917 345.462 111.743 401.963Z" fill="url(#paint1_linear_1268_6)"/>
<path d="M755.586 249.408C755.586 125.356 702.695 120.548 669.998 120.548C641.629 120.548 623.358 138.338 623.358 138.338V34H532V385C532 385 586.334 385 634.417 385C688.27 385 755.586 380.192 755.586 249.408ZM664.228 249.408C664.228 318.166 653.169 322.493 638.744 322.493C631.051 322.493 623.358 321.051 623.358 321.051V194.114C623.358 194.114 633.936 187.382 644.995 187.382C657.497 187.382 664.228 194.114 664.228 249.408Z" fill="#979AAD"/>
<path d="M994.209 283.066V252.774C994.209 150.84 951.415 120.548 892.273 120.548C834.573 120.548 779.759 146.031 779.759 253.736C779.759 375.864 849.479 385 906.698 385C944.683 385 981.227 372.018 981.227 372.018V305.664C981.227 305.664 934.105 315.762 906.698 315.762C884.099 315.762 870.636 310.473 870.636 283.066H994.209ZM909.102 233.541H870.636C871.597 203.249 869.193 174.881 892.273 174.881C910.545 174.881 909.102 203.73 909.102 233.541Z" fill="#979AAD"/>
<path d="M1174.68 376.826V311.915C1174.68 311.915 1148.71 315.762 1141.98 315.762C1131.88 315.762 1126.59 312.396 1126.59 295.086V183.536H1174.68V125.356H1126.59V48.4246L1035.24 67.6575V125.356V147.042V164.023V183.536V311.434C1035.24 382.115 1083.8 385 1109.77 385C1137.65 385 1174.68 376.826 1174.68 376.826Z" fill="#979AAD"/>
<path d="M1335.74 376.826V311.915C1335.74 311.915 1309.77 315.762 1303.04 315.762C1292.94 315.762 1287.65 312.396 1287.65 295.086V183.536H1335.74V125.356H1287.65V48.4246L1196.3 67.6575V125.356V131.625V156.203V183.536V311.434C1196.3 382.115 1244.86 385 1270.82 385C1298.71 385 1335.74 376.826 1335.74 376.826Z" fill="#979AAD"/>
<path d="M1555.33 283.066V252.774C1555.33 150.84 1512.54 120.548 1453.4 120.548C1395.7 120.548 1340.88 146.031 1340.88 253.736C1340.88 375.864 1410.6 385 1467.82 385C1505.81 385 1542.35 372.018 1542.35 372.018V305.664C1542.35 305.664 1495.23 315.762 1467.82 315.762C1445.22 315.762 1431.76 310.473 1431.76 283.066H1555.33ZM1470.23 233.541H1431.76C1432.72 203.249 1430.32 174.881 1453.4 174.881C1471.67 174.881 1470.23 203.73 1470.23 233.541Z" fill="#979AAD"/>
<path d="M1739.59 201.807V125.837C1739.59 125.837 1732.38 120.548 1711.22 120.548C1690.07 120.548 1687.58 117.885 1670.15 135.089L1656.89 125.356H1584.28V380.192H1675.64V205.653C1675.64 205.653 1688.62 196.999 1705.93 196.999C1722.28 196.999 1739.59 201.807 1739.59 201.807Z" fill="#979AAD"/>
<path d="M1908.19 376.345V306.626C1908.19 306.626 1884.63 314.319 1863.95 314.319C1845.68 314.319 1836.06 299.895 1836.06 254.216C1836.06 199.403 1851.45 189.786 1867.8 189.786C1884.15 189.786 1908.19 196.999 1908.19 196.999V129.203C1908.19 129.203 1885.11 120.548 1861.55 120.548C1831.74 120.548 1744.71 124.395 1744.71 254.216C1744.71 382.596 1818.27 385 1856.26 385C1882.7 385 1908.19 376.345 1908.19 376.345Z" fill="#979AAD"/>
<path d="M2129.43 380.192V198.441C2129.43 135.453 2092.4 120.548 2040.47 120.548C1989.98 120.548 1946.71 135.453 1946.71 135.453V200.845C1946.71 200.845 1990.95 188.344 2016.43 188.344C2033.26 188.344 2038.07 192.671 2038.07 204.211V214.308H2020.76C1985.66 214.308 1920.26 221.04 1920.26 302.779C1920.26 378.268 1964.98 385 1991.43 385C2024.6 385 2039.51 362.401 2039.51 362.401L2053.94 380.192H2129.43ZM2038.07 325.859C2038.07 325.859 2031.82 328.744 2026.05 328.744C2013.55 328.744 2008.26 320.089 2008.26 297.49C2008.26 267.199 2013.06 259.025 2030.37 258.063L2038.07 257.582V325.859Z" fill="#979AAD"/>
<path d="M2323.26 201.807V125.837C2323.26 125.837 2315.56 120.548 2294.89 120.548C2273.73 120.548 2264.71 120.548 2254.32 136.653L2240.55 125.356H2167.95V380.192H2259.31V205.653C2259.31 205.653 2272.29 196.999 2289.6 196.999C2305.95 196.999 2323.26 201.807 2323.26 201.807Z" fill="#979AAD"/>
<path d="M2482 376.826V311.915C2482 311.915 2456.04 315.762 2449.3 315.762C2439.21 315.762 2433.92 312.396 2433.92 295.086V183.536H2482V125.356H2433.92V48.4246L2342.56 67.6575V125.356V142.127V164.581V183.536V311.434C2342.56 382.115 2391.12 385 2417.09 385C2444.98 385 2482 376.826 2482 376.826Z" fill="#979AAD"/>
<defs>
<linearGradient id="paint0_linear_1268_6" x1="113.457" y1="75.2283" x2="462.183" y2="388.798" gradientUnits="userSpaceOnUse">
<stop stop-color="#979AAD" stop-opacity="0.2"/>
<stop offset="1" stop-color="#979AAD"/>
</linearGradient>
<linearGradient id="paint1_linear_1268_6" x1="30.7195" y1="101.121" x2="265.728" y2="344.737" gradientUnits="userSpaceOnUse">
<stop stop-color="#979AAD"/>
<stop offset="1" stop-color="#979AAD" stop-opacity="0.2"/>
</linearGradient>
</defs>
</svg>
